X:1
T:Lucile, LM
T:Charles Hutchinson Gabriel, 1912
T:Lucile, LM
T:Public Domain
C:Charles Hutchinson Gabriel, 1912
Z:Public Domain
%%score ( 1 2 ) ( 3 4 )
L:1/8
M:3/4
K:A
V:1 treble 
V:2 treble 
V:3 bass 
V:4 bass 
V:1
 [CA]2 [DG]2 [DF]2 | ([CE]2 [EA]2) [Dd]2 | [Ec]4 [DB]2 | [CA]6 | [EA]2 [DG]2 [CA]2 | [Ed]4 [Ec]2 | %6
 (E2 ^D2) [DB]2 | (E4 D2) | [CA]2 [DG]2 [DF]2 | ([CE]2 [EA]2) [Dd]2 | [Ec]4 [EB]2 | [Ee]4 [=Ge]2 | %12
 [Ed]2 c2 [FB]2 | [EA]4 [_EA]2 | [DA]4 [DG]2 | [CA]6 |] %16
V:2
 x6 | x6 | x6 | x6 | x6 | x6 | B4 x2 | B6 | x6 | x6 | x6 | x6 | x6 | x6 | x6 | x6 |] %16
V:3
 (E,A,) (B,E,) (F,G,) | (A,,2 C,2) [F,A,]2 | [E,A,]4 [E,G,]2 | [A,,A,]6 | %4
 [C,A,]2 [B,,E,]2 [A,,A,]2 | [G,,B,]4 (A,,C,) | [E,G,]2 [F,A,]2 [B,,A,]2 | (G,4 E,2) | %8
 (E,A,) (B,E,) (F,G,) | (A,,2 C,2) [F,A,]2 | [E,A,]4 [D,G,]2 | [C,A,]4 [^A,,C]2 | %12
 [B,,B,]2 [C,^A,]2 [D,B,]2 | [E,C]4 [E,=C]2 | [E,B,]4 (B,E,) | [A,,E,]6 |] %16
V:4
 A,,2 A,,2 A,,2 | A,4 x2 | x6 | x6 | x6 | x4 A,2 | x6 | E,6 | A,,2 A,,2 A,,2 | A,4 x2 | x6 | x6 | %12
 x6 | x6 | x4 E,2 | x6 |] %16

